public/new/vuesaxoutlineclock2.svg

<svg fill="none" height="18" viewBox="0 0 19 18" width="19" xmlns="http://www.w3.org/2000/svg"><g fill="#a9aab7"><path d="m9.09961 17.0625c-4.4475 0-8.0625-3.615-8.0625-8.0625s3.615-8.0625 8.0625-8.0625c4.44749 0 8.06249 3.615 8.06249 8.0625s-3.615 8.0625-8.06249 8.0625zm0-15c-3.825 0-6.9375 3.1125-6.9375 6.9375s3.1125 6.9375 6.9375 6.9375c3.82499 0 6.93749-3.1125 6.93749-6.9375s-3.1125-6.9375-6.93749-6.9375z"/><path d="m11.8826 11.9478c-.0975 0-.195-.0225-.285-.0825l-2.32502-1.3875c-.5775-.345-1.005-1.10249-1.005-1.76999v-3.075c0-.3075.255-.5625.5625-.5625s.5625.255.5625.5625v3.075c0 .27.225.6675.4575.8025l2.32502 1.38749c.27.1575.3525.5025.195.7725-.1125.18-.3.2775-.4875.2775z"/></g></svg>

<svg width="19" height="18" viewBox="0 0 19 18" fill="none" xmlns="http://www.w3.org/2000/svg">
<path d="M9.09961 17.0625C4.65211 17.0625 1.03711 13.4475 1.03711 9C1.03711 4.5525 4.65211 0.9375 9.09961 0.9375C13.5471 0.9375 17.1621 4.5525 17.1621 9C17.1621 13.4475 13.5471 17.0625 9.09961 17.0625ZM9.09961 2.0625C5.27461 2.0625 2.16211 5.175 2.16211 9C2.16211 12.825 5.27461 15.9375 9.09961 15.9375C12.9246 15.9375 16.0371 12.825 16.0371 9C16.0371 5.175 12.9246 2.0625 9.09961 2.0625Z" fill="#A9AAB7"/>
<path d="M11.8826 11.9478C11.7851 11.9478 11.6876 11.9253 11.5976 11.8653L9.27258 10.4778C8.69508 10.1328 8.26758 9.37531 8.26758 8.70781V5.63281C8.26758 5.32531 8.52258 5.07031 8.83008 5.07031C9.13758 5.07031 9.39258 5.32531 9.39258 5.63281V8.70781C9.39258 8.97781 9.61758 9.37531 9.85008 9.51031L12.1751 10.8978C12.4451 11.0553 12.5276 11.4003 12.3701 11.6703C12.2576 11.8503 12.0701 11.9478 11.8826 11.9478Z" fill="#A9AAB7"/>
</svg>
